X: 69
T:Keely Krankie. JBa.68
T:Killiecrankie. JBa.68
M:C|
L:1/8
Q:120
S:Joseph Barnes MS,Carlisle,1762.
R:Air
O:England
A:Carlisle
Z:vmp.C.Graebe.
K:C Major
"No key given"EF | G3A G2 EF | G3A G2 EF | GFED CDEF |\
 G8 | A3B A2G2 | c3 B A2G2 | c3d edcB |\
 A6 ef | g2e2g2c2 | d2c2d2e2 | c2A2c2E2 |\
 G4 G3 B | A4 c4 | d2c2d2e2 | c2A2 c3 E | D4 C3 :||:\
ef | gfga g2 (ef) | gfga g2 ef | gfed cdef | g8 | a2b2a2g2| c'2b2a2g2 |\
agfe defg | a4 a2 G2 | cBcd edef | gfga g2 fe |\
d2 c2 G2 E2 | G4 G3 B | A4c4 | d3 c d2e2 | (c2A2) c3 E | D4 C |]
